dist/img/blog/19.svg

<svg width="25" height="25" viewBox="0 0 25 25" fill="none" xmlns="http://www.w3.org/2000/svg">
<path d="M15.7263 18.1089H15.6041C15.3596 17.2289 15.4329 15.6889 15.7997 14.32C16.2641 12.5844 17.1441 11.1668 17.1441 11.1668C13.3798 8.64899 12.9886 4.61568 12.4753 3.17346C12.6219 3.0512 12.7198 2.88018 12.7198 2.66004C12.7198 2.34221 12.4753 2.04893 12.1576 2V3.31991L12.182 11.5088C12.7687 11.5577 13.2576 12.0709 13.2576 12.682C13.2576 13.3421 12.7198 13.8553 12.0843 13.8553C11.4243 13.8553 10.911 13.3176 10.911 12.682C10.911 12.0709 11.3755 11.5821 11.962 11.5088L11.9376 3.31991V2C11.6198 2.04894 11.3755 2.31783 11.3755 2.66004C11.3755 2.85562 11.4732 3.05119 11.62 3.17346C11.1066 4.61563 10.7643 8.64899 7 11.1668C7 11.1668 7.88 12.6089 8.36884 14.3446C8.73544 15.6891 8.80875 17.2289 8.5888 18.1089H8.46654C8.22203 18.1089 8.02663 18.3045 8.02663 18.5734C8.02663 18.8179 8.22221 19.0133 8.46654 19.0133L15.7265 18.9889C15.971 18.9889 16.1664 18.7934 16.1664 18.549C16.1663 18.3045 15.9708 18.1089 15.7263 18.1089L15.7263 18.1089Z" fill="#202125"/>
<path d="M8.61304 19.4777H15.5797V23.9999H8.61304V19.4777Z" fill="#202125"/>
</svg>

<svg width="25" height="25" viewBox="0 0 25 25" fill="none" xmlns="http://www.w3.org/2000/svg"><path d="M15.726 18.109h-.122c-.244-.88-.171-2.42.196-3.789.464-1.736 1.344-3.153 1.344-3.153-3.764-2.518-4.155-6.551-4.669-7.994a.65.65 0 00.245-.513.68.68 0 00-.562-.66v1.32l.024 8.189a1.192 1.192 0 011.076 1.173 1.174 1.174 0 01-2.347 0c0-.611.465-1.1 1.051-1.173l-.024-8.19V2a.66.66 0 00-.563.66c0 .196.098.391.245.513-.513 1.443-.856 5.476-4.62 7.994 0 0 .88 1.442 1.369 3.178.366 1.344.44 2.884.22 3.764h-.122c-.245 0-.44.195-.44.464 0 .245.195.44.44.44l7.26-.024c.244 0 .44-.196.44-.44a.438.438 0 00-.44-.44zm-7.113 1.369h6.967V24H8.613v-4.522z" fill="#202125"/></svg>
